X:1
T: Miss Cameron of Balvenie
C:William Marshall
R:Reel
Q: 232
K:Bb
M:4/4
L:1/8
|:f|dB B1/2B1/2B B2 FB|AB cd eg fe|dB B1/2B1/2B B2 FB|AF cA B3f|
dB B1/2B1/2B B2 FB|AB cd eg fe|dB B1/2B1/2B B2 FB|AF cA B3E|
DE FB DB FB|EF GB EB GB|Ac ec gf ed|ed cB BA GF|
DE FB DB FB|EF GB EB GB|db ag fe dB|AF cA B3:|
